Numix/scalable/actions/system-search-symbolic.svg

<?xml version="1.0" encoding="UTF-8" standalone="no"?>
<!-- Created with Inkscape (http://www.inkscape.org/) -->

<svg
   xmlns:dc="http://purl.org/dc/elements/1.1/"
   xmlns:cc="http://creativecommons.org/ns#"
   xmlns:rdf="http://www.w3.org/1999/02/22-rdf-syntax-ns#"
   xmlns:svg="http://www.w3.org/2000/svg"
   xmlns="http://www.w3.org/2000/svg"
   xmlns:sodipodi="http://sodipodi.sourceforge.net/DTD/sodipodi-0.dtd"
   xmlns:inkscape="http://www.inkscape.org/namespaces/inkscape"
   sodipodi:docname="system-search-symbolic.svg"
   inkscape:export-filename="/home/sam/dev/RESOURCES/gnome-icon-theme-symbolic/src/gnome-stencils.png"
   inkscape:export-xdpi="90"
   inkscape:export-ydpi="90"
   height="16"
   id="svg7384"
   version="1.1"
   inkscape:version="0.91 r"
   width="16.000002">
  <metadata
     id="metadata90">
    <rdf:RDF>
      <cc:Work
         rdf:about="">
        <dc:format>image/svg+xml</dc:format>
        <dc:type
           rdf:resource="http://purl.org/dc/dcmitype/StillImage" />
        <dc:title>elementary Symbolic Icon Theme</dc:title>
      </cc:Work>
    </rdf:RDF>
  </metadata>
  <sodipodi:namedview
     inkscape:bbox-nodes="true"
     inkscape:bbox-paths="true"
     bordercolor="#666666"
     borderopacity="1"
     inkscape:current-layer="layer12"
     inkscape:cx="9.254495"
     inkscape:cy="0.089570012"
     gridtolerance="10"
     inkscape:guide-bbox="true"
     guidetolerance="10"
     id="namedview88"
     inkscape:object-nodes="true"
     inkscape:object-paths="false"
     objecttolerance="10"
     pagecolor="#3a3b39"
     inkscape:pageopacity="1"
     inkscape:pageshadow="2"
     showborder="true"
     showgrid="true"
     showguides="true"
     inkscape:snap-bbox="true"
     inkscape:snap-bbox-edge-midpoints="true"
     inkscape:snap-bbox-midpoints="true"
     inkscape:snap-global="true"
     inkscape:snap-grids="true"
     inkscape:snap-nodes="true"
     inkscape:snap-others="false"
     inkscape:snap-to-guides="true"
     inkscape:window-height="1056"
     inkscape:window-maximized="1"
     inkscape:window-width="1920"
     inkscape:window-x="0"
     inkscape:window-y="24"
     inkscape:zoom="16">
    <inkscape:grid
       dotted="false"
       empspacing="4"
       enabled="true"
       id="grid4866"
       originx="0"
       originy="0"
       snapvisiblegridlinesonly="true"
       spacingx="1px"
       spacingy="1px"
       type="xygrid"
       visible="true" />
    <inkscape:grid
       color="#000000"
       dotted="true"
       empcolor="#000000"
       empopacity="0.25098039"
       empspacing="4"
       enabled="false"
       id="grid13609"
       opacity="0.1254902"
       originx="-152.0004px"
       originy="-229px"
       snapvisiblegridlinesonly="true"
       spacingx="0.5px"
       spacingy="0.5px"
       type="xygrid"
       visible="true" />
  </sodipodi:namedview>
  <title
     id="title9167">elementary Symbolic Icon Theme</title>
  <defs
     id="defs7386" />
  <g
     inkscape:groupmode="layer"
     id="layer9"
     label="status"
     inkscape:label="status"
     style="display:inline"
     transform="translate(-393.0006,12)" />
  <g
     inkscape:groupmode="layer"
     id="layer10"
     inkscape:label="devices"
     style="display:inline"
     transform="translate(-393.0006,12)" />
  <g
     inkscape:groupmode="layer"
     id="layer13"
     inkscape:label="places"
     style="display:inline"
     transform="translate(-393.0006,12)" />
  <g
     inkscape:groupmode="layer"
     id="layer14"
     inkscape:label="mimes"
     transform="translate(-393.0006,12)" />
  <g
     inkscape:groupmode="layer"
     id="layer15"
     inkscape:label="emblems"
     style="display:inline"
     transform="translate(-393.0006,12)" />
  <g
     inkscape:groupmode="layer"
     id="g71291"
     inkscape:label="emotes"
     style="display:inline"
     transform="translate(-393.0006,12)" />
  <g
     inkscape:groupmode="layer"
     id="layer12"
     inkscape:label="actions"
     style="display:inline"
     transform="translate(-393.0006,12)">
    <path
       style="fill:#bebebe;fill-rule:evenodd;fill-opacity:1"
       d="M 7.0449219 0 C 3.3835219 0 0.41796875 2.9630726 0.41796875 6.6269531 C 0.41796875 10.288349 3.3835219 13.253906 7.0449219 13.253906 C 8.0555319 13.253906 9.0037244 13.03043 9.8652344 12.632812 L 12.351562 15.117188 C 13.519563 16.293473 13.530751 16.293473 14.707031 15.117188 C 15.875031 13.949186 15.875031 13.938004 14.707031 12.761719 L 12.427734 10.484375 C 13.206404 9.3909266 13.671875 8.0683169 13.671875 6.6269531 C 13.671875 2.9630726 10.706322 -1.1842379e-15 7.0449219 0 z M 6.9414062 3.3144531 A 3.31348 3.3126516 0 0 1 6.9648438 3.3144531 A 3.31348 3.3126516 0 0 1 7.2792969 3.3222656 A 3.31348 3.3126516 0 0 1 7.6074219 3.3613281 A 3.31348 3.3126516 0 0 1 7.9238281 3.4316406 A 3.31348 3.3126516 0 0 1 7.9296875 3.4335938 A 3.31348 3.3126516 0 0 1 8.2441406 3.5390625 A 3.31348 3.3126516 0 0 1 8.5410156 3.6699219 A 3.31348 3.3126516 0 0 1 8.546875 3.6738281 A 3.31348 3.3126516 0 0 1 8.828125 3.8339844 A 3.31348 3.3126516 0 0 1 8.8339844 3.8378906 A 3.31348 3.3126516 0 0 1 9.0976562 4.0253906 A 3.31348 3.3126516 0 0 1 9.1035156 4.03125 A 3.31348 3.3126516 0 0 1 9.3476562 4.2441406 A 3.31348 3.3126516 0 0 1 9.3535156 4.25 A 3.31348 3.3126516 0 0 1 9.3730469 4.2714844 A 3.31348 3.3126516 0 0 1 9.7792969 4.7558594 A 3.31348 3.3126516 0 0 1 9.9511719 5.0371094 A 3.31348 3.3126516 0 0 1 10.095703 5.3359375 A 3.31348 3.3126516 0 0 1 10.207031 5.6386719 A 3.31348 3.3126516 0 0 1 10.208984 5.6464844 A 3.31348 3.3126516 0 0 1 10.320312 6.1621094 A 3.31348 3.3126516 0 0 1 10.339844 6.2871094 A 3.31348 3.3126516 0 0 1 10.353516 6.5546875 A 3.31348 3.3126516 0 0 1 10.357422 6.625 A 3.31348 3.3126516 0 0 1 10.357422 6.6269531 A 3.31348 3.3126516 0 0 1 10.345703 6.859375 A 3.31348 3.3126516 0 0 1 10.330078 7.0332031 A 3.31348 3.3126516 0 0 1 10.306641 7.1875 A 3.31348 3.3126516 0 0 1 10.275391 7.34375 A 3.31348 3.3126516 0 0 1 10.230469 7.5234375 A 3.31348 3.3126516 0 0 1 10.1875 7.6621094 A 3.31348 3.3126516 0 0 1 10.126953 7.828125 A 3.31348 3.3126516 0 0 1 10.0625 7.984375 A 3.31348 3.3126516 0 0 1 9.9980469 8.1171875 A 3.31348 3.3126516 0 0 1 9.9121094 8.28125 A 3.31348 3.3126516 0 0 1 9.8417969 8.3945312 A 3.31348 3.3126516 0 0 1 9.7246094 8.5703125 A 3.31348 3.3126516 0 0 1 9.6542969 8.6621094 A 3.31348 3.3126516 0 0 1 9.5234375 8.8203125 A 3.31348 3.3126516 0 0 1 9.4394531 8.9121094 A 3.31348 3.3126516 0 0 1 9.2792969 9.0683594 A 3.31348 3.3126516 0 0 1 9.2070312 9.1328125 A 3.31348 3.3126516 0 0 1 9.0371094 9.2695312 A 3.31348 3.3126516 0 0 1 8.9238281 9.3496094 A 3.31348 3.3126516 0 0 1 8.7539062 9.4609375 A 3.31348 3.3126516 0 0 1 8.6679688 9.5097656 A 3.31348 3.3126516 0 0 1 8.4707031 9.6132812 A 3.31348 3.3126516 0 0 1 8.3515625 9.6679688 A 3.31348 3.3126516 0 0 1 8.1542969 9.7441406 A 3.31348 3.3126516 0 0 1 8.0546875 9.7773438 A 3.31348 3.3126516 0 0 1 7.8496094 9.8359375 A 3.31348 3.3126516 0 0 1 7.7207031 9.8652344 A 3.31348 3.3126516 0 0 1 7.515625 9.9023438 A 3.31348 3.3126516 0 0 1 7.4121094 9.9140625 A 3.31348 3.3126516 0 0 1 7.1933594 9.9335938 A 3.31348 3.3126516 0 0 1 7.0585938 9.9355469 A 3.31348 3.3126516 0 0 1 6.8613281 9.9316406 A 3.31348 3.3126516 0 0 1 6.7460938 9.921875 A 3.31348 3.3126516 0 0 1 6.53125 9.8964844 A 3.31348 3.3126516 0 0 1 6.4121094 9.875 A 3.31348 3.3126516 0 0 1 6.2070312 9.8300781 A 3.31348 3.3126516 0 0 1 6.0917969 9.796875 A 3.31348 3.3126516 0 0 1 5.8886719 9.7285156 A 3.31348 3.3126516 0 0 1 5.7773438 9.6835938 A 3.31348 3.3126516 0 0 1 5.5976562 9.6035156 A 3.31348 3.3126516 0 0 1 5.4667969 9.5371094 A 3.31348 3.3126516 0 0 1 5.3066406 9.4453125 A 3.31348 3.3126516 0 0 1 5.1816406 9.3632812 A 3.31348 3.3126516 0 0 1 5.0292969 9.2539062 A 3.31348 3.3126516 0 0 1 4.9355469 9.1777344 A 3.31348 3.3126516 0 0 1 4.7636719 9.0273438 A 3.31348 3.3126516 0 0 1 4.6972656 8.9589844 A 3.31348 3.3126516 0 0 1 4.5507812 8.8027344 A 3.31348 3.3126516 0 0 1 4.4492188 8.6816406 A 3.31348 3.3126516 0 0 1 4.3574219 8.5605469 A 3.31348 3.3126516 0 0 1 4.2519531 8.4042969 A 3.31348 3.3126516 0 0 1 4.1738281 8.2734375 A 3.31348 3.3126516 0 0 1 4.0976562 8.1328125 A 3.31348 3.3126516 0 0 1 4.0214844 7.9746094 A 3.31348 3.3126516 0 0 1 3.9628906 7.8339844 A 3.31348 3.3126516 0 0 1 3.8984375 7.6601562 A 3.31348 3.3126516 0 0 1 3.8613281 7.5351562 A 3.31348 3.3126516 0 0 1 3.8085938 7.3320312 A 3.31348 3.3126516 0 0 1 3.7851562 7.2089844 A 3.31348 3.3126516 0 0 1 3.7558594 7.0136719 A 3.31348 3.3126516 0 0 1 3.7421875 6.8632812 A 3.31348 3.3126516 0 0 1 3.7304688 6.6269531 A 3.31348 3.3126516 0 0 1 3.7304688 6.625 A 3.31348 3.3126516 0 0 1 3.7421875 6.390625 A 3.31348 3.3126516 0 0 1 3.7558594 6.2421875 A 3.31348 3.3126516 0 0 1 3.7851562 6.0449219 A 3.31348 3.3126516 0 0 1 3.8105469 5.9160156 A 3.31348 3.3126516 0 0 1 3.8613281 5.7167969 A 3.31348 3.3126516 0 0 1 3.8964844 5.5996094 A 3.31348 3.3126516 0 0 1 3.9609375 5.4199219 A 3.31348 3.3126516 0 0 1 4.0273438 5.2636719 A 3.31348 3.3126516 0 0 1 4.0820312 5.1464844 A 3.31348 3.3126516 0 0 1 4.1777344 4.96875 A 3.31348 3.3126516 0 0 1 4.25 4.8515625 A 3.31348 3.3126516 0 0 1 4.3613281 4.6855469 A 3.31348 3.3126516 0 0 1 4.4296875 4.5957031 A 3.31348 3.3126516 0 0 1 4.5761719 4.4179688 A 3.31348 3.3126516 0 0 1 4.6445312 4.3457031 A 3.31348 3.3126516 0 0 1 4.796875 4.1933594 A 3.31348 3.3126516 0 0 1 4.8945312 4.109375 A 3.31348 3.3126516 0 0 1 5.0488281 3.9824219 A 3.31348 3.3126516 0 0 1 5.1601562 3.9042969 A 3.31348 3.3126516 0 0 1 5.3203125 3.7988281 A 3.31348 3.3126516 0 0 1 5.4472656 3.7265625 A 3.31348 3.3126516 0 0 1 5.6171875 3.6386719 A 3.31348 3.3126516 0 0 1 5.7304688 3.5878906 A 3.31348 3.3126516 0 0 1 5.9199219 3.5117188 A 3.31348 3.3126516 0 0 1 6.0527344 3.4667969 A 3.31348 3.3126516 0 0 1 6.2402344 3.4140625 A 3.31348 3.3126516 0 0 1 6.3691406 3.3867188 A 3.31348 3.3126516 0 0 1 6.5488281 3.3535156 A 3.31348 3.3126516 0 0 1 6.703125 3.3339844 A 3.31348 3.3126516 0 0 1 6.9414062 3.3144531 z "
       transform="translate(393.0006,-12)"
       id="path4151" />
  </g>
</svg>

<!-- Created with Inkscape (http://www.inkscape.org/) -->
<svg xmlns="http://www.w3.org/2000/svg" viewBox="0 0 16 16">
 <g transform="translate(-393.0006,12)" style="display:inline">
  <path d="m 7.04 0 c -3.661 0 -6.627 2.963 -6.627 6.627 c 0 3.661 2.966 6.627 6.627 6.627 c 1.01 0 1.959 -0.223 2.82 -0.621 l 2.486 2.484 c 1.168 1.176 1.179 1.176 2.355 0 c 1.168 -1.168 1.168 -1.179 0 -2.355 l -2.279 -2.277 c 0.779 -1.093 1.244 -2.416 1.244 -3.857 c 0 -3.664 -2.966 -6.627 -6.627 -6.627 z m -0.104 3.314 a 3.313 3.313 0 0 1 0.023 0 a 3.313 3.313 0 0 1 0.314 0.008 a 3.313 3.313 0 0 1 0.328 0.039 a 3.313 3.313 0 0 1 0.316 0.07 a 3.313 3.313 0 0 1 0.006 0.002 a 3.313 3.313 0 0 1 0.314 0.105 a 3.313 3.313 0 0 1 0.297 0.131 a 3.313 3.313 0 0 1 0.006 0.004 a 3.313 3.313 0 0 1 0.281 0.16 a 3.313 3.313 0 0 1 0.006 0.004 a 3.313 3.313 0 0 1 0.264 0.187 a 3.313 3.313 0 0 1 0.006 0.006 a 3.313 3.313 0 0 1 0.244 0.213 a 3.313 3.313 0 0 1 0.006 0.006 a 3.313 3.313 0 0 1 0.02 0.021 a 3.313 3.313 0 0 1 0.406 0.484 a 3.313 3.313 0 0 1 0.172 0.281 a 3.313 3.313 0 0 1 0.145 0.299 a 3.313 3.313 0 0 1 0.111 0.303 a 3.313 3.313 0 0 1 0.002 0.008 a 3.313 3.313 0 0 1 0.111 0.516 a 3.313 3.313 0 0 1 0.02 0.125 a 3.313 3.313 0 0 1 0.014 0.268 a 3.313 3.313 0 0 1 0.004 0.07 a 3.313 3.313 0 0 1 0 0.002 a 3.313 3.313 0 0 1 -0.012 0.232 a 3.313 3.313 0 0 1 -0.016 0.174 a 3.313 3.313 0 0 1 -0.023 0.154 a 3.313 3.313 0 0 1 -0.031 0.156 a 3.313 3.313 0 0 1 -0.045 0.18 a 3.313 3.313 0 0 1 -0.043 0.139 a 3.313 3.313 0 0 1 -0.061 0.166 a 3.313 3.313 0 0 1 -0.064 0.156 a 3.313 3.313 0 0 1 -0.064 0.133 a 3.313 3.313 0 0 1 -0.086 0.164 a 3.313 3.313 0 0 1 -0.07 0.113 a 3.313 3.313 0 0 1 -0.117 0.176 a 3.313 3.313 0 0 1 -0.07 0.092 a 3.313 3.313 0 0 1 -0.131 0.158 a 3.313 3.313 0 0 1 -0.084 0.092 a 3.313 3.313 0 0 1 -0.16 0.156 a 3.313 3.313 0 0 1 -0.072 0.064 a 3.313 3.313 0 0 1 -0.17 0.137 a 3.313 3.313 0 0 1 -0.113 0.08 a 3.313 3.313 0 0 1 -0.17 0.111 a 3.313 3.313 0 0 1 -0.086 0.049 a 3.313 3.313 0 0 1 -0.197 0.104 a 3.313 3.313 0 0 1 -0.119 0.055 a 3.313 3.313 0 0 1 -0.197 0.076 a 3.313 3.313 0 0 1 -0.1 0.033 a 3.313 3.313 0 0 1 -0.205 0.059 a 3.313 3.313 0 0 1 -0.129 0.029 a 3.313 3.313 0 0 1 -0.205 0.037 a 3.313 3.313 0 0 1 -0.104 0.012 a 3.313 3.313 0 0 1 -0.219 0.02 a 3.313 3.313 0 0 1 -0.135 0.002 a 3.313 3.313 0 0 1 -0.197 -0.004 a 3.313 3.313 0 0 1 -0.115 -0.01 a 3.313 3.313 0 0 1 -0.215 -0.025 a 3.313 3.313 0 0 1 -0.119 -0.021 a 3.313 3.313 0 0 1 -0.205 -0.045 a 3.313 3.313 0 0 1 -0.115 -0.033 a 3.313 3.313 0 0 1 -0.203 -0.068 a 3.313 3.313 0 0 1 -0.111 -0.045 a 3.313 3.313 0 0 1 -0.18 -0.08 a 3.313 3.313 0 0 1 -0.131 -0.066 a 3.313 3.313 0 0 1 -0.16 -0.092 a 3.313 3.313 0 0 1 -0.125 -0.082 a 3.313 3.313 0 0 1 -0.152 -0.109 a 3.313 3.313 0 0 1 -0.094 -0.076 a 3.313 3.313 0 0 1 -0.172 -0.15 a 3.313 3.313 0 0 1 -0.066 -0.068 a 3.313 3.313 0 0 1 -0.146 -0.156 a 3.313 3.313 0 0 1 -0.102 -0.121 a 3.313 3.313 0 0 1 -0.092 -0.121 a 3.313 3.313 0 0 1 -0.105 -0.156 a 3.313 3.313 0 0 1 -0.078 -0.131 a 3.313 3.313 0 0 1 -0.076 -0.141 a 3.313 3.313 0 0 1 -0.076 -0.158 a 3.313 3.313 0 0 1 -0.059 -0.141 a 3.313 3.313 0 0 1 -0.064 -0.174 a 3.313 3.313 0 0 1 -0.037 -0.125 a 3.313 3.313 0 0 1 -0.053 -0.203 a 3.313 3.313 0 0 1 -0.023 -0.123 a 3.313 3.313 0 0 1 -0.029 -0.195 a 3.313 3.313 0 0 1 -0.014 -0.15 a 3.313 3.313 0 0 1 -0.012 -0.236 a 3.313 3.313 0 0 1 0 -0.002 a 3.313 3.313 0 0 1 0.012 -0.234 a 3.313 3.313 0 0 1 0.014 -0.148 a 3.313 3.313 0 0 1 0.029 -0.197 a 3.313 3.313 0 0 1 0.025 -0.129 a 3.313 3.313 0 0 1 0.051 -0.199 a 3.313 3.313 0 0 1 0.035 -0.117 a 3.313 3.313 0 0 1 0.064 -0.18 a 3.313 3.313 0 0 1 0.066 -0.156 a 3.313 3.313 0 0 1 0.055 -0.117 a 3.313 3.313 0 0 1 0.096 -0.178 a 3.313 3.313 0 0 1 0.072 -0.117 a 3.313 3.313 0 0 1 0.111 -0.166 a 3.313 3.313 0 0 1 0.068 -0.09 a 3.313 3.313 0 0 1 0.146 -0.178 a 3.313 3.313 0 0 1 0.068 -0.072 a 3.313 3.313 0 0 1 0.152 -0.152 a 3.313 3.313 0 0 1 0.098 -0.084 a 3.313 3.313 0 0 1 0.154 -0.127 a 3.313 3.313 0 0 1 0.111 -0.078 a 3.313 3.313 0 0 1 0.16 -0.105 a 3.313 3.313 0 0 1 0.127 -0.072 a 3.313 3.313 0 0 1 0.17 -0.088 a 3.313 3.313 0 0 1 0.113 -0.051 a 3.313 3.313 0 0 1 0.189 -0.076 a 3.313 3.313 0 0 1 0.133 -0.045 a 3.313 3.313 0 0 1 0.188 -0.053 a 3.313 3.313 0 0 1 0.129 -0.027 a 3.313 3.313 0 0 1 0.18 -0.033 a 3.313 3.313 0 0 1 0.154 -0.02 a 3.313 3.313 0 0 1 0.238 -0.02 z" transform="translate(393.0006,-12)" style="fill:#bebebe;fill-opacity:1;fill-rule:evenodd"/>
 </g>
</svg>
